mobile/24/svg/cookies-slash-24.svg

<svg width="24" height="24" viewBox="0 0 24 24" fill="none" xmlns="http://www.w3.org/2000/svg">
<path d="M5.37903 4.48695L7.50003 6.60895V5.49995H10V7.99995H8.89103L19.471 18.5799C21.039 16.8129 22 14.4969 22 11.9559C22 11.8506 21.9929 11.7471 21.9858 11.6435C21.9823 11.5917 21.9787 11.5399 21.976 11.4879C21.346 11.6809 20.68 11.7819 20 11.8279V12.9999H17.5V11.6529C13.595 10.7759 10.667 7.28695 10.667 3.12095C10.667 2.75595 10.697 2.39695 10.74 2.04395C8.69603 2.30295 6.84803 3.18595 5.37903 4.48695Z" fill="black"/>
<path fill-rule="evenodd" clip-rule="evenodd" d="M3.30354 7.04098C2.47549 8.49199 2 10.1679 2 11.956C2 17.47 6.486 21.956 12 21.956C13.7874 21.956 15.4664 21.4832 16.9199 20.6573L19.2622 22.9997L20.4997 21.7622L18.3827 19.6453C18.3888 19.6402 18.3949 19.6351 18.401 19.63L4.333 5.56201C4.3279 5.5681 4.32281 5.57419 4.31773 5.58029L1.73768 3.00024L0.500244 4.23768L3.30354 7.04098ZM6.5 13H4V10.5H6.5V13ZM10 18.5H7.5V16H10V18.5Z" fill="black"/>
</svg>

<svg width="24" height="24" fill="none" xmlns="http://www.w3.org/2000/svg"><path d="M5.379 4.487 7.5 6.609V5.5H10V8H8.891l10.58 10.58A9.95 9.95 0 0 0 22 11.956c0-.105-.007-.209-.014-.313l-.01-.155a8.767 8.767 0 0 1-1.976.34V13h-2.5v-1.347c-3.905-.877-6.833-4.366-6.833-8.532 0-.365.03-.724.073-1.077a9.971 9.971 0 0 0-5.361 2.443z" fill="#000"/><path fill-rule="evenodd" clip-rule="evenodd" d="M3.304 7.041A9.883 9.883 0 0 0 2 11.956c0 5.514 4.486 10 10 10a9.929 9.929 0 0 0 4.92-1.299L19.262 23l1.238-1.238-2.117-2.117.018-.015L4.333 5.562a8.69 8.69 0 0 0-.015.018L1.738 3 .5 4.238 3.304 7.04zM6.5 13H4v-2.5h2.5V13zm3.5 5.5H7.5V16H10v2.5z" fill="#000"/></svg>
